X:1
T:Miss Jessy Stewart's Jigg [1]
M:6/8
L:1/8
R:Jig
S:MacDonald – A Collection of Strathspey Reels, vol. 1 (1788)
Z:AK/Fiddler’s Companion
K:D
DFD TF2E | DFD {g}Tf2e | dcB AFD | EFE E2F |
DFD {G}TF2E | DFD {g}Tf2e | dcB AFD | DFD D2 :|
|: A | def efg | agf ecA | BdB AFD | EFE E2A |
def efg | agf ecA | BdB AFD | DFD D2 :|

